apps/avalonstar/src/assets/katakana.svg

<?xml version="1.0" encoding="UTF-8"?>
<svg viewBox="0 0 888 110" version="1.1" xmlns="http://www.w3.org/2000/svg" xmlns:xlink="http://www.w3.org/1999/xlink">
    <g id="Page-2" stroke="none" stroke-width="1" fill="currentColor" fill-rule="evenodd">
        <path d="M185.368,16.48 C184.514667,35.3386667 181.634667,51.8933333 176.728,66.144 C171.821333,80.3946667 164.333333,94.3466667 154.264,108 C148.546667,103.562667 143.341333,99.8933333 138.648,96.992 C133.954667,94.0906667 128.322667,91.3173333 121.752,88.672 C131.821333,79.6266667 139.16,69.4293333 143.768,58.08 C148.376,46.7306667 150.765333,33.3333333 150.936,17.888 L185.368,16.48 Z M111.256,15.072 L126.104,38.24 C122.264,47.8826667 117.613333,56.5226667 112.152,64.16 C106.690667,71.7973333 100.248,78.9013333 92.824,85.472 C86.0826667,78.6453333 80.2373333,73.3973333 75.288,69.728 C73.496,74.4213333 71.2773333,78.5813333 68.632,82.208 C65.9866667,85.8346667 62.7866667,89.0986667 59.032,92 C53.9973333,95.9253333 47.5546667,99.2533333 39.704,101.984 C31.8533333,104.714667 23.064,106.634667 13.336,107.744 C11.4586667,100.917333 9.624,95.0933333 7.832,90.272 C6.04,85.4506667 3.608,80.6506667 0.536,75.872 C10.264,75.9573333 18.3493333,75.36 24.792,74.08 C31.2346667,72.8 35.8213333,70.8373333 38.552,68.192 C40.9413333,65.888 42.8826667,62.9013333 44.376,59.232 C45.8693333,55.5626667 47.0853333,50.784 48.024,44.896 L81.176,44.896 C80.664,48.3946667 80.2373333,51.04 79.896,52.832 C83.3946667,50.016 86.3813333,46.048 88.856,40.928 L4.504,40.928 L4.504,15.072 L111.256,15.072 Z M229.144,4.576 C232.557333,11.3173333 235.032,17.888 236.568,24.288 L229.656,26.592 C235.288,40.16 239.896,51.552 243.48,60.768 C247.064,69.984 250.946667,80.864 255.128,93.408 L221.464,107.488 C219.501333,100.917333 218.392,97.248 218.136,96.48 C213.101333,79.4986667 208.706667,65.44 204.952,54.304 C201.197333,43.168 196.290667,30.4746667 190.232,16.224 L222.104,14.944 C221.677333,13.7493333 220.610667,11.36 218.904,7.776 L229.144,4.576 Z M242.584,0.352 C245.741333,6.66666667 248.216,13.2373333 250.008,20.064 L239.64,23.392 C238.274667,17.4186667 235.842667,10.8053333 232.344,3.552 L242.584,0.352 Z M263.448,15.84 L374.808,15.84 L374.808,106.464 L341.528,106.464 L341.528,100.832 L296.728,100.832 L296.728,106.464 L263.448,106.464 L263.448,15.84 Z M296.728,74.72 L341.528,74.72 L341.528,41.824 L296.728,41.824 L296.728,74.72 Z M399.64,108.896 C397.762667,101.984 395.906667,96.16 394.072,91.424 C392.237333,86.688 389.528,81.8453333 385.944,76.896 C401.901333,76.896 415.106667,75.8506667 425.56,73.76 C436.013333,71.6693333 444.994667,68.2346667 452.504,63.456 C459.330667,59.104 464.621333,52.832 468.376,44.64 C472.130667,36.448 474.733333,26.08 476.184,13.536 C481.304,15.328 486.36,16.8853333 491.352,18.208 C496.344,19.5306667 502.466667,21.0453333 509.72,22.752 C507.672,38.624 503.810667,51.5093333 498.136,61.408 C492.461333,71.3066667 484.674667,79.7546667 474.776,86.752 C465.901333,93.0666667 455.533333,97.9306667 443.672,101.344 C431.810667,104.757333 417.133333,107.274667 399.64,108.896 Z M437.016,56.672 C426.434667,52.7466667 417.901333,49.8453333 411.416,47.968 C404.930667,46.0906667 395.885333,44 384.28,41.696 C388.290667,37.856 392.386667,33.3546667 396.568,28.192 C400.749333,23.0293333 403.821333,18.7413333 405.784,15.328 C416.536,18.3146667 426.136,21.216 434.584,24.032 C443.032,26.848 451.565333,30.048 460.184,33.632 L437.016,56.672 Z M635.032,78.816 C628.205333,90.5066667 623.128,100.661333 619.8,109.28 C608.706667,104.16 595.906667,97.632 581.4,89.696 C567.832,97.9733333 552.898667,104.373333 536.6,108.896 C533.357333,103.690667 530.072,98.8266667 526.744,94.304 C523.416,89.7813333 519.192,84.6613333 514.072,78.944 C532.077333,76.8106667 547.416,72.864 560.088,67.104 C572.76,61.344 583.32,53.6426667 591.768,44 L521.752,44 L521.752,16.352 L619.032,15.84 L631.192,42.72 C623.768,53.3866667 615.32,62.9866667 605.848,71.52 C615.746667,75.2746667 625.474667,77.7066667 635.032,78.816 Z M764.568,42.976 C760.045333,51.936 755.949333,59.232 752.28,64.864 L761.88,66.656 C759.32,69.5573333 757.101333,72.5013333 755.224,75.488 C753.346667,78.4746667 751.042667,82.3573333 748.312,87.136 C747.544,88.416 746.861333,89.5893333 746.264,90.656 C745.666667,91.7226667 745.112,92.6826667 744.6,93.536 C737.773333,91.3173333 732.738667,89.6533333 729.496,88.544 C729.496,88.544 728.088,89.44 725.272,91.232 C717.08,95.9253333 707.224,99.6373333 695.704,102.368 C684.184,105.098667 670.402667,107.189333 654.36,108.64 C651.970667,101.728 649.858667,96.1386667 648.024,91.872 C646.189333,87.6053333 643.437333,82.784 639.768,77.408 L652.312,77.408 C649.922667,72.4586667 647.533333,68.0853333 645.144,64.288 C642.754667,60.4906667 639.896,56.9706667 636.568,53.728 C645.784,49.2053333 653.016,43.2746667 658.264,35.936 C663.512,28.5973333 666.946667,20.192 668.568,10.72 L700.952,10.72 L699.928,15.2 L752.024,15.2 L764.568,42.976 Z M660.248,77.28 C674.584,77.024 685.464,75.9573333 692.888,74.08 C686.573333,71.0933333 680.984,68.064 676.12,64.992 L694.424,45.408 C701.592,49.3333333 710.168,52.96 720.152,56.288 C723.394667,52.3626667 726.424,48.1813333 729.24,43.744 L688.92,43.744 C684.994667,50.9973333 680.578667,57.44 675.672,63.072 C670.765333,68.704 665.624,73.44 660.248,77.28 Z M887.192,75.872 L776.216,75.872 L776.216,45.92 L887.192,45.92 L887.192,75.872 Z" id="アバロンスター" fill="#FFFFFF" fill-rule="nonzero"></path>
    </g>
</svg>

<svg xmlns="http://www.w3.org/2000/svg" viewBox="0 0 888 110">
  <path fill="#FFF" d="M185.37 16.48c-.86 18.86-3.74 35.41-8.64 49.66s-12.4 28.2-22.47 41.86a182.14 182.14 0 0 0-15.61-11 111.4 111.4 0 0 0-16.9-8.33c10.07-9.04 17.41-19.24 22.02-30.59 4.6-11.35 7-24.75 7.17-40.2l34.43-1.4Zm-74.11-1.4 14.84 23.16a121.82 121.82 0 0 1-13.95 25.92 127.51 127.51 0 0 1-19.33 21.31C86.08 78.65 80.24 73.4 75.3 69.73a53.33 53.33 0 0 1-6.66 12.48 48.45 48.45 0 0 1-9.6 9.79c-5.03 3.93-11.48 7.25-19.33 9.98a122.51 122.51 0 0 1-26.36 5.76 213.38 213.38 0 0 0-5.5-17.47 74.98 74.98 0 0 0-7.3-14.4c9.72.09 17.8-.51 24.25-1.79 6.44-1.28 11.03-3.24 13.76-5.89a25.6 25.6 0 0 0 5.83-8.96c1.49-3.67 2.7-8.45 3.64-14.33h33.16c-.52 3.5-.94 6.14-1.28 7.93 3.5-2.81 6.48-6.78 8.96-11.9H4.5V15.07h106.76Zm117.88-10.5a90.57 90.57 0 0 1 7.43 19.7l-6.91 2.31a1682.8 1682.8 0 0 1 13.82 34.18c3.58 9.21 7.47 20.1 11.65 32.64l-33.67 14.08a816.53 816.53 0 0 0-3.32-11.01 1233.53 1233.53 0 0 0-13.19-42.18 539.14 539.14 0 0 0-14.72-38.08l31.87-1.28a92.66 92.66 0 0 0-3.2-7.16l10.24-3.2ZM242.58.35a101.7 101.7 0 0 1 7.43 19.71l-10.37 3.33c-1.37-5.97-3.8-12.58-7.3-19.84l10.24-3.2Zm20.87 15.49H374.8v90.62h-33.28v-5.63h-44.8v5.63h-33.28V15.84Zm33.28 58.88h44.8v-32.9h-44.8v32.9Zm102.91 34.18a179.58 179.58 0 0 0-5.57-17.48 65.06 65.06 0 0 0-8.13-14.52c15.96 0 29.17-1.05 39.62-3.14 10.45-2.1 19.43-5.53 26.94-10.3 6.83-4.36 12.12-10.63 15.88-18.82 3.75-8.2 6.35-18.56 7.8-31.1a204.4 204.4 0 0 0 15.17 4.67c5 1.32 11.12 2.84 18.37 4.54-2.05 15.87-5.9 28.76-11.58 38.66-5.68 9.9-13.47 18.34-23.36 25.34-8.88 6.32-19.25 11.18-31.1 14.6-11.87 3.4-26.55 5.92-44.04 7.55Zm37.38-52.23a386.67 386.67 0 0 0-25.6-8.7c-6.49-1.88-15.53-3.97-27.14-6.27a145.3 145.3 0 0 0 12.29-13.5c4.18-5.17 7.25-9.46 9.21-12.87a597.86 597.86 0 0 1 28.8 8.7 378.08 378.08 0 0 1 25.6 9.6l-23.16 23.04Zm198.01 22.15c-6.82 11.69-11.9 21.84-15.23 30.46a643.16 643.16 0 0 1-38.4-19.58 175.74 175.74 0 0 1-44.8 19.2 228.22 228.22 0 0 0-9.86-14.6 211.32 211.32 0 0 0-12.67-15.36c18-2.13 33.35-6.08 46.02-11.84 12.67-5.76 23.23-13.46 31.68-23.1h-70.02V16.35l97.28-.51 12.16 26.88a167.03 167.03 0 0 1-25.34 28.8c9.9 3.75 19.62 6.19 29.18 7.3Zm129.54-35.84c-4.52 8.96-8.62 16.25-12.29 21.88l9.6 1.8a68.42 68.42 0 0 0-6.66 8.83 334.5 334.5 0 0 0-6.9 11.65c-.78 1.28-1.46 2.45-2.06 3.52a112 112 0 0 1-1.66 2.88c-6.83-2.22-11.86-3.89-15.1-5l-4.23 2.7c-8.19 4.69-18.05 8.4-29.57 11.13-11.52 2.73-25.3 4.82-41.34 6.27-2.39-6.91-4.5-12.5-6.34-16.77a87.71 87.71 0 0 0-8.25-14.46h12.54a134.65 134.65 0 0 0-7.17-13.12 57.4 57.4 0 0 0-8.57-10.56c9.21-4.52 16.45-10.46 21.7-17.8a60.16 60.16 0 0 0 10.3-25.21h32.38l-1.02 4.48h52.1l12.54 27.78Zm-104.32 34.3c14.33-.26 25.21-1.32 32.64-3.2a158.01 158.01 0 0 1-16.77-9.09l18.3-19.58c7.17 3.92 15.75 7.55 25.73 10.88 3.24-3.93 6.27-8.1 9.09-12.55h-40.32a106.3 106.3 0 0 1-13.25 19.33 89.82 89.82 0 0 1-15.42 14.21Zm226.94-1.4H776.22V45.91h110.97v29.95Z"/>
</svg>
